X:1
T:Non ho piu vit'Amore
T:Gemignano Capilupi
T:Source : Canzonette a tre voci di H.Vecchi et di G.Capilupi da Modena---Venetia---Ang.Gardano---1597. Editor : André Vierendeels (03/03/17). 
T:Notes : Original clefs : C1, C1, F4 Lute accompaniment is not added in this edotion
T:Non ho piu vit'Amore
T:©
T:©
C:Gemignano Capilupi
Z:©
%%score [ 1 2 3 ]
L:1/8
Q:1/4=100
M:2/2
K:C
V:1 treble nm="Soprano 1" snm="S 1"
V:2 treble nm="Soprano 2" snm="S 2"
V:3 bass nm="Bass" snm="B"
V:1
"^1)" z4 z2 G2 | G6 B2 | A2 G2 A4 | B4 z4 | c2 cc d4- | d2 c2 B4 |[M:2/4] A4 :: %7
w: Non|ho piu|vit' A- mo-|re,|poi che son sen|_ za'il co-|re;|
w: E|sen- za'il|cor pur mi-|o,|ar- do, vi- 'e|_ de- si|o;|
[M:2/2] z2 c2 c2 c2 | c6 B2 | A2 e2 d2 c2 | d4 c4 | z4 z2 e2 | e2 d2 c2 c2 | e2 e2 d3 c | %14
w: che del mio|cru- do|la cru- del par-|ti- ta,|m'ha'l|mio cor tol- t'e|col mio cor la|
w: e gia non|ard' e|gia non vi- v'e|me- no|va|de- sian- do chi|ha duo co- r'in|
 B4 !fermata!A4 :| %15
w: vi- ta.|
w: se- no,|
V:2
"^2)""^1)" z4 z2 E2 | E4 G4 | ^F2 G4 F2 | G4 A2 AA | A6 B2 | ^G2 A4 G2 |[M:2/4] A4 :: %7
w: Non|ho piu|vit' A- mo-|re, poi che son|sen- za'il|co- * *|re,|
w: Dun-|que'ac- que-|ta'i mar- ti-|ri o fa ch'in|tut- to'io|so- spi- *|ri,|
[M:2/2] z2 A2 A2 A2 | A6 G2 | F2 c2 B2 c2 | B4 c2 e2 | e2 d2 c4 | B4 A4 | c4 B2 A2 | %14
w: che del mio|cru- do|la cru- del par-|ti- ta, m'ha'l|mio cor tolt'|e col|mio cor la|
w: ch'al- tro che|tu gia|non puo far che|pri- vo, del|cor per cui|si vi-|ve'io re- sti|
 ^G4 !fermata!A4 :| %15
w: vi- ta.|
w: vi- va.|
V:3
"^3)""^1)""^4)""^5)" z4 z2 C,2 | C,4 G,,4 | D,2 E,2 D,4 | G,4 F,2 F,F, | F,4 D,4 | E,8 | %6
w: Non|ho piu|vit' A- mo-|re, poi che son|senz' il|co-|
w: O|com- par-|t'il po- te-|re, e- gua- l'e|il vo-|le-|
w: Ch'all'|hor se|ben mia for-|te, mi da- ra|vi- ta'e|mor-|
[M:2/4] A,,4 ::[M:2/2] z2 A,2 A,2 A,2 | A,6 E,2 | F,2 C,2 G,2 A,2 | G,4 C,2 C2 | C2 B,2 A,4 | %12
w: re,|che del mio|cru- do|la cru del par-|ti- ta, mha'l|mio cor tolt'|
w: re,|O fa che|to- sto'a|me fac- cia ri-|tor- no; quel|per ccui vi-|
w: te,|Mor- ro'e vi-|vro ma|sa- pro com' an-|co- ra, e|quan- do vi-|
 E,4 F,4 | C,4 D,2 D,2 | E,4 !fermata!A,,4 :| %15
w: e col|mio cor le|vi- ta.|
w: vo'e ho|l'ul- ti- mo|gior- no.|
w: va'e com'|e quend' io|mo- ra.|

